Yosa-Max-Dark/places/16x16/folder-gdrive.svg

<?xml version="1.0" encoding="UTF-8"?>
<svg id="svg6" version="1.1" viewBox="0 0 16 16" xmlns="http://www.w3.org/2000/svg">
 <defs id="defs3051">
  <style id="current-color-scheme" type="text/css">.ColorScheme-Text {
        color:#dfdfdf;
      }</style>
 </defs>
 <path id="path4" class="ColorScheme-Text" d="m5.7868652 1.8707275 4.4262698 7.7416999h4.419433l-4.426269-7.7416999h-4.4194316zm-0.5554199 0.9689939-4.2314453 7.4187016 2.2131348 3.87085 4.2263183-7.4187021zm1.3039551 7.4187016-2.2131348 3.87085h8.4645994l2.213135-3.87085z" style="color:#dfdfdf;fill:#dfdfdf"/>
</svg>

<?xml version="1.0" encoding="UTF-8" standalone="no"?>
<svg
   xmlns:dc="http://purl.org/dc/elements/1.1/"
   xmlns:cc="http://creativecommons.org/ns#"
   xmlns:rdf="http://www.w3.org/1999/02/22-rdf-syntax-ns#"
   xmlns:svg="http://www.w3.org/2000/svg"
   xmlns="http://www.w3.org/2000/svg"
   xmlns:sodipodi="http://sodipodi.sourceforge.net/DTD/sodipodi-0.dtd"
   xmlns:inkscape="http://www.inkscape.org/namespaces/inkscape"
   viewBox="0 0 16 16"
   version="1.1"
   id="svg6"
   sodipodi:docname="folder-gdrive.svg"
   inkscape:version="0.92.4 (unknown)">
  <metadata
     id="metadata10">
    <rdf:RDF>
      <cc:Work
         rdf:about="">
        <dc:format>image/svg+xml</dc:format>
        <dc:type
           rdf:resource="http://purl.org/dc/dcmitype/StillImage" />
      </cc:Work>
    </rdf:RDF>
  </metadata>
  <sodipodi:namedview
     pagecolor="#ffffff"
     bordercolor="#666666"
     borderopacity="1"
     objecttolerance="10"
     gridtolerance="10"
     guidetolerance="10"
     inkscape:pageopacity="0"
     inkscape:pageshadow="2"
     inkscape:window-width="1366"
     inkscape:window-height="709"
     id="namedview8"
     showgrid="false"
     inkscape:zoom="31.8125"
     inkscape:cx="8"
     inkscape:cy="8"
     inkscape:window-x="0"
     inkscape:window-y="0"
     inkscape:window-maximized="1"
     inkscape:current-layer="svg6" />
  <defs
     id="defs3051">
    <style
       type="text/css"
       id="current-color-scheme">
      .ColorScheme-Text {
        color:#dfdfdf;
      }
      </style>
  </defs>
  <path
     style="color:#dfdfdf;fill:#dfdfdf;fill-opacity:1;stroke:none;stroke-width:0.875"
     class="ColorScheme-Text"
     d="m 5.7868652,1.8707275 4.4262698,7.7416999 h 4.419433 L 10.206299,1.8707275 H 5.7937012 5.7868674 Z M 5.2314453,2.8397214 1,10.258423 3.2131348,14.129273 7.4394531,6.7105709 Z m 1.3039551,7.4187016 -2.2131348,3.87085 H 12.786865 L 15,10.258423 Z"
     id="path4"
     inkscape:connector-curvature="0" />
</svg>
